material/.icons/material/file-sync.svg

<svg xmlns="http://www.w3.org/2000/svg" viewBox="0 0 24 24"><path d="M11 17.5c0-3.6 2.9-6.5 6.5-6.5.9 0 1.7.2 2.5.5V8l-6-6H6c-1.1 0-2 .9-2 2v16c0 1.1.9 2 2 2h6.8c-1.1-1.2-1.8-2.8-1.8-4.5m2-14L18.5 9H13V3.5m4 8.5v1.5c2.2 0 4 1.8 4 4 0 .8-.2 1.6-.7 2.2l-1.1-1.1c.2-.3.3-.7.3-1.1 0-1.4-1.1-2.5-2.5-2.5v1.5l-2.2-2.2L17 12m0 11v-1.5c-2.2 0-4-1.8-4-4 0-.8.2-1.6.7-2.2l1.1 1.1c-.2.3-.3.7-.3 1.1 0 1.4 1.1 2.5 2.5 2.5v-1.5l2.2 2.2L17 23z"/></svg>

<?xml version="1.0" encoding="UTF-8"?><!DOCTYPE svg PUBLIC "-//W3C//DTD SVG 1.1//EN" "http://www.w3.org/Graphics/SVG/1.1/DTD/svg11.dtd"><svg xmlns="http://www.w3.org/2000/svg" xmlns:xlink="http://www.w3.org/1999/xlink" version="1.1" id="mdi-file-sync" width="24" height="24" viewBox="0 0 24 24"><path d="M11 17.5C11 13.9 13.9 11 17.5 11C18.4 11 19.2 11.2 20 11.5V8L14 2H6C4.9 2 4 2.9 4 4V20C4 21.1 4.9 22 6 22H12.8C11.7 20.8 11 19.2 11 17.5M13 3.5L18.5 9H13V3.5M17 12V13.5C19.2 13.5 21 15.3 21 17.5C21 18.3 20.8 19.1 20.3 19.7L19.2 18.6C19.4 18.3 19.5 17.9 19.5 17.5C19.5 16.1 18.4 15 17 15V16.5L14.8 14.3L17 12M17 23V21.5C14.8 21.5 13 19.7 13 17.5C13 16.7 13.2 15.9 13.7 15.3L14.8 16.4C14.6 16.7 14.5 17.1 14.5 17.5C14.5 18.9 15.6 20 17 20V18.5L19.2 20.7L17 23Z" /></svg>
